assets/images/icons/lock.svg

<svg width="16" height="16" viewBox="0 0 16 16" fill="none" xmlns="http://www.w3.org/2000/svg">
<g id="fi_3064155" clip-path="url(#clip0_544_7464)">
<path id="Vector" d="M12.5 6H12V4C12 1.794 10.206 0 8 0C5.794 0 4 1.794 4 4V6H3.5C2.67333 6 2 6.67267 2 7.5V14.5C2 15.3273 2.67333 16 3.5 16H12.5C13.3267 16 14 15.3273 14 14.5V7.5C14 6.67267 13.3267 6 12.5 6ZM5.33333 4C5.33333 2.52933 6.52933 1.33333 8 1.33333C9.47067 1.33333 10.6667 2.52933 10.6667 4V6H5.33333V4ZM8.66667 11.148V12.6667C8.66667 13.0347 8.36867 13.3333 8 13.3333C7.63133 13.3333 7.33333 13.0347 7.33333 12.6667V11.148C6.93667 10.9167 6.66667 10.4913 6.66667 10C6.66667 9.26467 7.26467 8.66667 8 8.66667C8.73533 8.66667 9.33333 9.26467 9.33333 10C9.33333 10.4913 9.06333 10.9167 8.66667 11.148Z" fill="#7FB51F"/>
</g>
<defs>
<clipPath id="clip0_544_7464">
<rect width="16" height="16" fill="white"/>
</clipPath>
</defs>
</svg>

<svg xmlns="http://www.w3.org/2000/svg" width="16" height="16" fill="none"><g clip-path="url(#a)"><path fill="#7FB51F" d="M12.5 6H12V4c0-2.206-1.794-4-4-4S4 1.794 4 4v2h-.5C2.673 6 2 6.673 2 7.5v7c0 .827.673 1.5 1.5 1.5h9c.827 0 1.5-.673 1.5-1.5v-7c0-.827-.673-1.5-1.5-1.5M5.333 4A2.67 2.67 0 0 1 8 1.333 2.67 2.67 0 0 1 10.667 4v2H5.333zm3.334 7.148v1.519a.666.666 0 1 1-1.334 0v-1.519A1.329 1.329 0 0 1 8 8.667a1.329 1.329 0 0 1 .667 2.481"/></g><defs><clipPath id="a"><path fill="#fff" d="M0 0h16v16H0z"/></clipPath></defs></svg>
